src/icons/main-lock.svg

<svg enable-background="new 0 0 11 14" viewBox="0 0 11 14" xmlns="http://www.w3.org/2000/svg"><path d="m10.2 6.2h-1.6v-3.1c0-1.7-1.4-3.1-3.1-3.1s-3.1 1.4-3.1 3.1v3.1h-1.7c-.4 0-.7.4-.7.8v6.2c0 .4.3.8.7.8h9.4c.4 0 .8-.4.8-.8v-6.2c.1-.4-.3-.8-.7-.8zm-6.3 0v-3.1c0-.9.7-1.6 1.6-1.6s1.6.7 1.6 1.6v3.1z" fill="#4d5969"/></svg>

<?xml version="1.0" encoding="utf-8"?>
<!-- Generator: Adobe Illustrator 20.1.0, SVG Export Plug-In . SVG Version: 6.00 Build 0)  -->
<svg version="1.1" id="Layer_1" xmlns="http://www.w3.org/2000/svg" xmlns:xlink="http://www.w3.org/1999/xlink" x="0px" y="0px"
	 viewBox="0 0 11 14" style="enable-background:new 0 0 11 14;" xml:space="preserve">
<style type="text/css">
	.st0{fill:#4D5969;}
</style>
<title>HDL/Icon/Standard/lock</title>
<desc>Created with Sketch.</desc>
<g id="Colors">
	<g id="Main-Icons" transform="translate(-119.000000, -923.000000)">
		<g id="Lock" transform="translate(101.000000, 905.000000)">
			<g id="HDL_x2F_Icon_x2F_Standard_x2F_lock" transform="translate(18.000000, 18.000000)">
				<path id="lock_1_" class="st0" d="M10.2,6.2H8.6V3.1C8.6,1.4,7.2,0,5.5,0S2.4,1.4,2.4,3.1v3.1H0.7C0.3,6.2,0,6.6,0,7v6.2
					C0,13.6,0.3,14,0.7,14h9.4c0.4,0,0.8-0.4,0.8-0.8V7C11,6.6,10.6,6.2,10.2,6.2z M3.9,6.2V3.1c0-0.9,0.7-1.6,1.6-1.6
					s1.6,0.7,1.6,1.6v3.1H3.9z"/>
			</g>
		</g>
	</g>
</g>
</svg>
